T: Farewell To Lisheen
M: 6/8
L: 1/8
K: Dmaj
A|dcB cBA|d2F FED|d2B cBA| BAF E2A|ded cBA|BAF AFE|DEF A2F|EFE D2A :||F|DEF A2A|BAF AFE|DEF A2A|BAF E2F|DEF A2A|BAF AFE|DEF A2F|EFE D2F:||
